Gruvbox-Material-Icons/actions/16/document-save-as.svg

<svg width="16" height="16" version="1.1" xmlns="http://www.w3.org/2000/svg">
  <defs>
    <style id="current-color-scheme" type="text/css">.ColorScheme-Text { color:#ebdbb2; } .ColorScheme-Highlight { color:#458588; }</style>
  </defs>
  <path class="ColorScheme-Text" d="m2 1c-0.55 0-1 0.45-1 1v12c0 0.55 0.45 1 1 1h6v-2h-5v-10h1v5h8v-5h1v5h2v-5l-2-2h-11zm4 2h2v4h-2v-4zm3.875 6s-0.875 2e-7 -0.875 1v5c0 1 0.875 1 0.875 1h5.25s0.875 0 0.875-1v-5c0-1-0.875-1-0.875-1h-5.25zm1.125 1h3v1h-1v3h1v1h-3v-1h1v-3h-1v-1z" fill="currentColor"/>
</svg>

<svg xmlns="http://www.w3.org/2000/svg" width="16" height="16" version="1.1">
 <defs>
  <style id="current-color-scheme" type="text/css">
   .ColorScheme-Text { color:#ebdbb2; } .ColorScheme-Highlight { color:#458588; }
  </style>
 </defs>
 <path style="fill:currentColor" class="ColorScheme-Text" d="M 2 1 C 1.45 1 1 1.45 1 2 L 1 14 C 1 14.55 1.45 15 2 15 L 8 15 L 8 13 L 3 13 L 3 3 L 4 3 L 4 8 L 8 8 L 12 8 L 12 3 L 13 3 L 13 8 L 15 8 L 15 3 L 13 1 L 2 1 z M 6 3 L 8 3 L 8 7 L 6 7 L 6 3 z M 9.875 9 C 9.875 9 9 9.0000002 9 10 L 9 15 C 9 16 9.875 16 9.875 16 L 15.125 16 C 15.125 16 16 16 16 15 L 16 10 C 16 9.0000002 15.125 9 15.125 9 L 9.875 9 z M 11 10 L 14 10 L 14 11 L 13 11 L 13 14 L 14 14 L 14 15 L 11 15 L 11 14 L 12 14 L 12 11 L 11 11 L 11 10 z"/>
</svg>
